symbols/web/snooze/materialsymbolsoutlined/snooze_wght100gradN25fill1_20px.svg

<svg xmlns="http://www.w3.org/2000/svg" height="20" width="20"><path d="M8.292 12.917h3.437v-.584H9.062l2.667-3.021v-.666H8.292v.604H11l-2.708 3.042ZM10 17.146q-1.312 0-2.458-.5-1.146-.5-2.011-1.365-.864-.864-1.354-2.021-.489-1.156-.489-2.448 0-1.291.489-2.447.49-1.157 1.354-2.011Q6.396 5.5 7.542 5 8.688 4.5 10 4.5q1.312 0 2.469.5 1.156.5 2.01 1.354.854.854 1.354 2.011.5 1.156.5 2.447 0 1.292-.5 2.448-.5 1.157-1.354 2.021-.854.865-2.01 1.365-1.157.5-2.469.5ZM5.104 3.25l.458.417-2.729 2.687-.437-.437Zm9.834 0 2.687 2.667-.437.437-2.73-2.687Z"/></svg>

<svg xmlns="http://www.w3.org/2000/svg" height="20" width="20"><path d="M8.292 12.917H11.729V12.333H9.062L11.729 9.312V8.646H8.292V9.25H11L8.292 12.292ZM10 17.146Q8.688 17.146 7.542 16.646Q6.396 16.146 5.531 15.281Q4.667 14.417 4.177 13.26Q3.688 12.104 3.688 10.812Q3.688 9.521 4.177 8.365Q4.667 7.208 5.531 6.354Q6.396 5.5 7.542 5Q8.688 4.5 10 4.5Q11.312 4.5 12.469 5Q13.625 5.5 14.479 6.354Q15.333 7.208 15.833 8.365Q16.333 9.521 16.333 10.812Q16.333 12.104 15.833 13.26Q15.333 14.417 14.479 15.281Q13.625 16.146 12.469 16.646Q11.312 17.146 10 17.146ZM5.104 3.25 5.562 3.667 2.833 6.354 2.396 5.917ZM14.938 3.25 17.625 5.917 17.188 6.354 14.458 3.667Z"/></svg>
